contributed-vectors/nextbike.svg

<svg xmlns="http://www.w3.org/2000/svg" xml:space="preserve" style="fill-rule:evenodd;clip-rule:evenodd;stroke-linejoin:round;stroke-miterlimit:2" viewBox="0 0 192 192"><circle cx="88" cy="88" r="88" style="fill:#728dbe" transform="translate(8 8)"/><path d="M301.2 15.8c.7 1.7-1.1 1.4.1 4.1.8 1.7 5.1 9 19.6 11.8 1.4.3 9.2 1.2 14.8-2 1.9-1.1-2.6-1-4.9-9.6-.8-3.1-1-7.7-5.9-11.9-5.1-4.4-13.1-6.4-21.2-6.2-3.9.1-11.3.6-11.9 1.6-.7 1.4 4.1 3.2 5.5 4.9 1.1 1.3-.4 2-.1 3 .5 2 3.7 3.6 4 4.3Zm71.1.3c-11.2 0-19.9 9.1-19.9 20.3 0 11.1 8.7 20 19.9 20 11.3 0 19.9-9 19.9-20 0-11.2-8.6-20.3-19.9-20.3Zm0 34.5c-7.3 0-13.3-6.4-13.3-14.2 0-8 6-14.5 13.3-14.5 7.4 0 13.4 6.5 13.4 14.5 0 7.9-6 14.2-13.4 14.2Zm-13.6-33.9c4.6-2.4 11.2-3.9 11.2-8.6 0-4-5.2-6.8-7.4-7.7-1.7-.7-3.6-.2-4.3 1.4-.7 1.4.4 3.1 2.3 3.8 2 .7 2.9 1.7 2.6 2.5-.3.9-2.7 1.2-7.1 3.4-2.3 1.1-4.3 2.9-6.2 5-2 2.1-4 5.9-5.1 8.2-4.2 8-12.2 10.4-13.5 10.6v1.2c0 7.8-6 14.2-13.4 14.2-7.3 0-13.3-6.4-13.3-14.2 0-2.4.6-4.7 1.5-6.7-1.4-1-4-3.3-5.3-4.7-1.2 2-2.9 6.1-2.9 11.4 0 11.1 8.7 20 19.9 20 10 0 17.8-6.9 19.6-16.1 7.3-3 10.3-7.4 12.5-12 1.9-4.3 4.3-9.3 8.9-11.7Z" style="fill:#fff;fill-rule:nonzero" transform="translate(-251.577 67.24) scale(1.01641)"/></svg>

<?xml version="1.0" encoding="UTF-8" standalone="no"?>
<!DOCTYPE svg PUBLIC "-//W3C//DTD SVG 1.1//EN" "http://www.w3.org/Graphics/SVG/1.1/DTD/svg11.dtd">
<svg width="100%" height="100%" viewBox="0 0 192 192" version="1.1" xmlns="http://www.w3.org/2000/svg" xmlns:xlink="http://www.w3.org/1999/xlink" xml:space="preserve" xmlns:serif="http://www.serif.com/" style="fill-rule:evenodd;clip-rule:evenodd;stroke-linejoin:round;stroke-miterlimit:2;">
    <g transform="matrix(1,0,0,1,8,8)">
        <circle cx="88" cy="88" r="88" style="fill:rgb(114,141,190);"/>
    </g>
    <g transform="matrix(1.01641,0,0,1.01641,-251.577,67.2401)">
        <path d="M301.2,15.8C301.9,17.5 300.1,17.2 301.3,19.9C302.1,21.6 306.4,28.9 320.9,31.7C322.3,32 330.1,32.9 335.7,29.7C337.6,28.6 333.1,28.7 330.8,20.1C330,17 329.8,12.4 324.9,8.2C319.8,3.8 311.8,1.8 303.7,2C299.8,2.1 292.4,2.6 291.8,3.6C291.1,5 295.9,6.8 297.3,8.5C298.4,9.8 296.9,10.5 297.2,11.5C297.7,13.5 300.9,15.1 301.2,15.8ZM372.3,16.1C361.1,16.1 352.4,25.2 352.4,36.4C352.4,47.5 361.1,56.4 372.3,56.4C383.6,56.4 392.2,47.4 392.2,36.4C392.2,25.2 383.6,16.1 372.3,16.1ZM372.3,50.6C365,50.6 359,44.2 359,36.4C359,28.4 365,21.9 372.3,21.9C379.7,21.9 385.7,28.4 385.7,36.4C385.7,44.3 379.7,50.6 372.3,50.6ZM358.7,16.7C363.3,14.3 369.9,12.8 369.9,8.1C369.9,4.1 364.7,1.3 362.5,0.4C360.8,-0.3 358.9,0.2 358.2,1.8C357.5,3.2 358.6,4.9 360.5,5.6C362.5,6.3 363.4,7.3 363.1,8.1C362.8,9 360.4,9.3 356,11.5C353.7,12.6 351.7,14.4 349.8,16.5C347.8,18.6 345.8,22.4 344.7,24.7C340.5,32.7 332.5,35.1 331.2,35.3L331.2,36.5C331.2,44.3 325.2,50.7 317.8,50.7C310.5,50.7 304.5,44.3 304.5,36.5C304.5,34.1 305.1,31.8 306,29.8C304.6,28.8 302,26.5 300.7,25.1C299.5,27.1 297.8,31.2 297.8,36.5C297.8,47.6 306.5,56.5 317.7,56.5C327.7,56.5 335.5,49.6 337.3,40.4C344.6,37.4 347.6,33 349.8,28.4C351.7,24.1 354.1,19.1 358.7,16.7Z" style="fill:white;fill-rule:nonzero;"/>
    </g>
</svg>
